X:287
T: Geistliches Lied ueber Psalm 43
N: A0638B
O: Europa, Mitteleuropa, Deutschland
N: Baseler Tenor 1570
R: Romanze, Ballade, Lied, religioeses Lied
M: 4/2
L: 1/2
K: G
G | G2_B2 | A2d2 | c2_B2 | A2z
G | G2d2 | c2d2 | G2A_B | c2z
A | _B2d2 | c2_B2 | A2z
G | _BBcc | dd_B
d | c_Bcd | _B2A2 | G3

@@@ Tune index: 600
